www/images/vector/logos/ibm.svg

<svg width="1000" height="400" viewBox="0 0 1000 400" xmlns="http://www.w3.org/2000/svg"><title>Imported Layers</title><desc>Created with Sketch.</desc><g fill="none" fill-rule="evenodd"><path d="M0 27.367h194.648V0H0v27.367zM222.227 0v27.367H499.61S471.275 0 433.75 0H222.227zm331.796 0v27.367h167.813L711.876 0H554.022zm288.125 0l-9.96 27.367h166.29V0h-156.33zM0 80.59h194.648V53.22H0V80.59zm222.227-27.33v27.33h309.57s-3.616-21.064-9.922-27.33H222.227zm331.796 0v27.33h186.21l-9.217-27.33H554.023zm268.204 0l-9.22 27.33h185.47V53.26h-176.25zm-766.29 80.59h84.297v-27.406H55.937v27.406zm222.227 0h84.297v-27.406h-84.296v27.406zm166.29-27.406v27.406h84.296s5.352-14.473 5.352-27.406h-89.65zm165.507 0v27.406h149.454l-9.96-27.406H609.96zm193.907 0l-10 27.406h150.196v-27.406H803.867zm-747.93 80.628h84.297v-27.367H55.937v27.367zm222.227-27.367v27.367h215.313s18.01-14.042 23.75-27.367H278.164zm331.797 0v27.367h84.298v-15.234l5.35 15.234h154.415l5.743-15.234v15.234h84.297v-27.367H785.82l-8.398 23.18-8.438-23.18H609.96zm-554.023 80.59h84.297v-27.367H55.937v27.367zm222.227-27.367v27.367h239.063c-5.74-13.282-23.75-27.367-23.75-27.367H278.164zm331.797 27.367h84.298v-27.367H609.96v27.367zm99.61-27.367l10.196 27.367h115.78l9.688-27.367H709.57zm150.196 27.367h84.297v-27.367h-84.297v27.367zm-803.83 53.222h84.298V266.15H55.937v27.367zm222.228 0h84.297V266.15h-84.296v27.367zm166.29-27.367v27.367H534.1c0-12.915-5.352-27.367-5.352-27.367h-84.297zm165.507 27.367h84.298V266.15H609.96v27.367zm118.75-27.367l9.884 27.367h77.617l9.962-27.367h-97.46zm131.056 27.367h84.297V266.15h-84.297v27.367zM1.523 346.777H196.17v-27.405H1.524v27.406zm220.704-27.405v27.406h299.648c6.306-6.276 9.922-27.406 9.922-27.406h-309.57zm333.32 27.406h138.71v-27.406h-138.71v27.406zm192.344-27.406l10.157 27.406h39.492l9.53-27.406h-59.18zm111.876 27.406H1000v-27.406H859.766v27.406zM1.523 400H196.17v-27.367H1.524V400zm220.704-27.367v27.328H433.75c37.526 0 65.86-27.327 65.86-27.327H222.226zM555.547 400h138.71v-27.367h-138.71V400zm211.6-27.367l9.767 27.29 1.68.038 9.922-27.327h-21.368zM859.768 400H1000v-27.367H859.766V400z" fill="#000"/></g></svg>

<?xml version="1.0" encoding="UTF-8" standalone="no"?>
<svg width="1000px" height="400px" viewBox="0 0 1000 400" version="1.1" xmlns="http://www.w3.org/2000/svg" xmlns:xlink="http://www.w3.org/1999/xlink" xmlns:sketch="http://www.bohemiancoding.com/sketch/ns">
    <!-- Generator: Sketch 3.2.2 (9983) - http://www.bohemiancoding.com/sketch -->
    <title>Imported Layers</title>
    <desc>Created with Sketch.</desc>
    <defs></defs>
    <g id="Page-1" stroke="none" stroke-width="1" fill="none" fill-rule="evenodd" sketch:type="MSPage">
        <path d="M0,27.367 L194.648,27.367 L194.648,0 L0,0 L0,27.367 Z M222.227,0 L222.227,27.367 L499.609,27.367 C499.609,27.367 471.276,0 433.75,0 L222.227,0 L222.227,0 Z M554.023,0 L554.023,27.367 L721.836,27.367 L711.875,0 L554.023,0 L554.023,0 Z M842.148,0 L832.188,27.367 L998.477,27.367 L998.477,0 L842.148,0 L842.148,0 Z M0,80.589 L194.648,80.589 L194.648,53.222 L0,53.222 L0,80.589 Z M222.227,53.261 L222.227,80.589 L531.797,80.589 C531.797,80.589 528.181,59.526 521.875,53.261 L222.227,53.261 L222.227,53.261 Z M554.023,53.261 L554.023,80.589 L740.234,80.589 L731.016,53.261 L554.023,53.261 L554.023,53.261 Z M822.227,53.261 L813.008,80.589 L998.477,80.589 L998.477,53.261 L822.227,53.261 L822.227,53.261 Z M55.937,133.85 L140.234,133.85 L140.234,106.444 L55.937,106.444 L55.937,133.85 Z M278.164,133.85 L362.461,133.85 L362.461,106.444 L278.164,106.444 L278.164,133.85 Z M444.453,106.444 L444.453,133.85 L528.75,133.85 C528.75,133.85 534.102,119.377 534.102,106.444 L444.453,106.444 L444.453,106.444 Z M609.961,106.444 L609.961,133.85 L759.414,133.85 L749.453,106.444 L609.961,106.444 L609.961,106.444 Z M803.867,106.444 L793.867,133.85 L944.063,133.85 L944.063,106.444 L803.867,106.444 L803.867,106.444 Z M55.937,187.072 L140.234,187.072 L140.234,159.705 L55.937,159.705 L55.937,187.072 Z M278.164,159.705 L278.164,187.072 L493.477,187.072 C493.477,187.072 511.488,173.03 517.227,159.705 L278.164,159.705 L278.164,159.705 Z M609.961,159.705 L609.961,187.072 L694.258,187.072 L694.258,171.838 L699.609,187.072 L854.023,187.072 L859.766,171.838 L859.766,187.072 L944.063,187.072 L944.063,159.705 L785.82,159.705 L777.422,182.886 L768.984,159.705 L609.961,159.705 L609.961,159.705 Z M55.937,240.295 L140.234,240.295 L140.234,212.928 L55.937,212.928 L55.937,240.295 Z M278.164,212.928 L278.164,240.295 L517.227,240.295 C511.487,227.013 493.477,212.928 493.477,212.928 L278.164,212.928 L278.164,212.928 Z M609.961,240.295 L694.258,240.295 L694.258,212.928 L609.961,212.928 L609.961,240.295 Z M709.57,212.928 L719.766,240.295 L835.547,240.295 L845.234,212.928 L709.57,212.928 L709.57,212.928 Z M859.766,240.295 L944.063,240.295 L944.063,212.928 L859.766,212.928 L859.766,240.295 Z M55.937,293.517 L140.234,293.517 L140.234,266.15 L55.937,266.15 L55.937,293.517 Z M278.164,293.517 L362.461,293.517 L362.461,266.15 L278.164,266.15 L278.164,293.517 Z M444.453,266.15 L444.453,293.517 L534.102,293.517 C534.102,280.602 528.75,266.15 528.75,266.15 L444.453,266.15 L444.453,266.15 Z M609.961,293.517 L694.258,293.517 L694.258,266.15 L609.961,266.15 L609.961,293.517 Z M728.711,266.15 L738.594,293.517 L816.211,293.517 L826.172,266.15 L728.711,266.15 L728.711,266.15 Z M859.766,293.517 L944.063,293.517 L944.063,266.15 L859.766,266.15 L859.766,293.517 Z M1.523,346.778 L196.171,346.778 L196.171,319.372 L1.523,319.372 L1.523,346.778 Z M222.227,319.372 L222.227,346.778 L521.875,346.778 C528.181,340.502 531.797,319.372 531.797,319.372 L222.227,319.372 L222.227,319.372 Z M555.547,346.778 L694.258,346.778 L694.258,319.372 L555.547,319.372 L555.547,346.778 Z M747.891,319.372 L758.047,346.778 L797.539,346.778 L807.07,319.372 L747.891,319.372 L747.891,319.372 Z M859.766,346.778 L1000,346.778 L1000,319.372 L859.766,319.372 L859.766,346.778 Z M1.523,400 L196.171,400 L196.171,372.633 L1.523,372.633 L1.523,400 Z M222.227,372.633 L222.227,399.961 L433.75,399.961 C471.276,399.961 499.609,372.633 499.609,372.633 L222.227,372.633 L222.227,372.633 Z M555.547,400 L694.258,400 L694.258,372.633 L555.547,372.633 L555.547,400 Z M767.148,372.633 L776.914,399.922 L778.594,399.961 L788.516,372.633 L767.148,372.633 L767.148,372.633 Z M859.766,400 L1000,400 L1000,372.633 L859.766,372.633 L859.766,400 Z" id="Imported-Layers" fill="#000000" sketch:type="MSShapeGroup"></path>
    </g>
</svg>
